svg/Pictogram/pictograms-aem-0021-live_electrical_wire_contact.svg

<?xml version="1.0" encoding="ISO-8859-1" standalone="yes"?>
<svg height="304.014" width="304.015">
  <metadata>
    <rdf:RDF xmlns:cc="http://web.resource.org/cc/" xmlns:dc="http://purl.org/dc/elements/1.1/" xmlns:rdf="http://www.w3.org/1999/02/22-rdf-syntax-ns#">
      <cc:Work rdf:about="">
        <dc:title></dc:title>
        <dc:description></dc:description>
        <dc:subject>
          <rdf:Bag>
            <rdf:li></rdf:li>
          </rdf:Bag>
        </dc:subject>
        <dc:publisher>
          <cc:Agent rdf:about="http://www.unece.org/trans/danger/publi/ghs/pictograms.html">
            <dc:title>Source: UNECE GHS of Classification and Labeling of Chemicals, Source: AEM Pictorial Database, Source: AEM Pictorial Database, Source: AEM Pictorial Database, Source: AEM Pictorial Database</dc:title>
          </cc:Agent>
        </dc:publisher>
        <dc:creator>
          <cc:Agent>
            <dc:title></dc:title>
          </cc:Agent>
        </dc:creator>
        <dc:rights>
          <cc:Agent>
            <dc:title></dc:title>
          </cc:Agent>
        </dc:rights>
        <dc:date></dc:date>
        <dc:format>image/svg+xml</dc:format>
        <dc:type rdf:resource="http://purl.org/dc/dcmitype/StillImage"/>
        <cc:license rdf:resource="http://en.wikipedia.org/wiki/Public_domain"/>
        <dc:language>en</dc:language>
      </cc:Work>
    </rdf:RDF>
  </metadata>
  <defs><marker id="ArrowEnd" markerHeight="3" markerUnits="strokeWidth" markerWidth="4" orient="auto" refX="0" refY="5" viewBox="0 0 10 10"><path d="M 0 0 L 10 5 L 0 10 z"/></marker><marker id="ArrowStart" markerHeight="3" markerUnits="strokeWidth" markerWidth="4" orient="auto" refX="10" refY="5" viewBox="0 0 10 10"><path d="M 10 0 L 0 5 L 10 10 z"/></marker> </defs>
  <g id="g2958" transform="matrix(1.3532768,0,0,1.3532781,-53.207834,-52.192858)">
    <path d="M 77.8314 49.5844C 92.9444 62.7724 121.472 88.9484 132.397 98.7844C 135.226 101.909 137.761 106.491 137.761 111.467C 138.151 129.799 112.476 137.198 112.499 154.084C 112.726 157.498 114.308 160.545 116.499 161.764C 118.452 164.081 125.374 161.694 123.718 166.956C 124.495 167.928 125.765 167.053 126.546 166.666C 129.272 165.108 131.323 161.788 133.081 159.448C 135.323 161.104 132.776 163.893 132.397 164.811C 131.128 167.065 128.206 168.03 127.034 170.17C 130.155 171.147 134.347 171.342 136.886 171.831L 136.589 173.487C 133.276 173.874 129.667 172.221 126.351 173.487C 127.034 175.147 129.46 176.549 130.339 178.401C 131.015 179.834 131.62 181.776 131.421 184.022C 131.034 184.213 130.64 184.706 130.058 184.51C 128.788 180.51 127.034 176.51 122.55 175.342L 121.073 177.245L 120.499 177.487C 118.745 177.975 115.526 176.608 113.187 175.827C 110.745 174.952 108.214 173.1 106.456 171.635C 100.413 166.956 97.4834 159.643 97.4834 151.94C 98.0734 136.428 113.382 127.166 120.694 116.342C 122.718 113.366 121.015 108.002 117.187 105.811C 109.843 100.077 80.0974 72.0494 72.6324 65.8234L 72.6444 49.5774L 77.8354 49.5844" style="stroke:none; fill-rule:evenodd; fill:#000000"/>
    <path d="M 160.679 192.897L 161.116 193.522L 195.593 185.678L 183.89 201.768L 184.343 202.295L 231.382 195.041C 231.577 209.569 226.698 222.248 216.46 232.198C 216.655 239.319 216.073 246.608 215.976 254.413L 157.46 254.436L 156.972 233.174C 142.636 220.983 139.808 202.452 140.784 183.534L 174.331 173.487L 160.679 192.893" style="stroke:none; fill-rule:evenodd; fill:#000000"/>
    <path d="M 231.378 105.686L 231.378 185.198L 231.362 185.198L 201.64 190.362L 214.315 171.831L 213.827 171.342L 179.206 180.026L 192.081 161.299L 191.593 160.815L 140.819 174.26L 140.784 118.291C 154.116 119.077 156.851 129.581 156.851 130.92L 156.851 154.026L 156.812 154.026C 156.812 155.053 157.737 155.889 158.769 155.889C 159.8 155.889 160.64 155.057 160.64 154.026L 160.581 154.026L 160.581 86.4244C 160.581 82.2294 163.983 78.8274 168.187 78.8274C 172.386 78.8274 175.788 82.2294 175.788 86.4244L 175.788 154.209L 175.792 154.209C 175.792 155.124 176.534 155.866 177.452 155.866C 178.366 155.866 179.108 155.124 179.108 154.209L 179.112 154.389L 179.112 74.7254C 179.112 70.5264 182.519 67.1204 186.718 67.1204C 190.917 67.1204 194.319 70.5264 194.319 74.7254L 194.319 154.209L 194.327 154.209C 194.327 155.124 195.065 155.866 195.98 155.866C 196.897 155.866 197.64 155.124 197.64 154.209L 197.644 154.209L 197.644 86.1784C 197.644 81.9834 201.05 78.5774 205.249 78.5774C 209.448 78.5774 212.851 81.9834 212.851 86.1784L 212.851 154.209L 212.854 154.209C 212.854 155.124 213.597 155.866 214.515 155.866C 215.429 155.866 216.171 155.124 216.171 154.209L 216.171 105.686C 216.171 101.487 219.577 98.0844 223.776 98.0844C 227.98 98.0844 231.382 101.487 231.382 105.686" style="stroke:none; fill-rule:evenodd; fill:#000000"/>
    <path d="M 29.6204 265.393L 2.62042 265.393" style="stroke:#000000; stroke-width:0.5; fill:none"/>
    <path d="M 38.6204 274.393L 38.6204 301.393" style="stroke:#000000; stroke-width:0.5; fill:none"/>
    <path d="M 29.6204 38.6204L 2.62042 38.6204" style="stroke:#000000; stroke-width:0.5; fill:none"/>
    <path d="M 38.6204 29.6204L 38.6204 2.62042" style="stroke:#000000; stroke-width:0.5; fill:none"/>
    <path d="M 274.394 38.6204L 301.394 38.6204" style="stroke:#000000; stroke-width:0.5; fill:none"/>
    <path d="M 265.394 29.6204L 265.394 2.62042" style="stroke:#000000; stroke-width:0.5; fill:none"/>
    <path d="M 274.394 265.393L 301.394 265.393" style="stroke:#000000; stroke-width:0.5; fill:none"/>
    <path d="M 265.394 274.393L 265.394 301.393" style="stroke:#000000; stroke-width:0.5; fill:none"/>
  </g>
</svg>

<svg viewBox="0 0 304.01 304.01"><g transform="matrix(1.35328 0 0 1.35328-53.21-52.19)" fill-rule="evenodd"><path d="m77.83 49.584c15.11 13.188 43.641 39.36 54.57 49.2 2.829 3.125 5.364 7.707 5.364 12.683.39 18.332-25.285 25.731-25.26 42.617.227 3.414 1.809 6.461 4 7.68 1.953 2.317 8.875-.07 7.219 5.192.777.972 2.047.097 2.828-.29 2.726-1.558 4.777-4.878 6.535-7.218 2.242 1.656-.305 4.445-.684 5.363-1.269 2.254-4.191 3.219-5.363 5.359 3.121.977 7.313 1.172 9.852 1.661l-.297 1.656c-3.313.387-6.922-1.266-10.238 0 .683 1.66 3.109 3.062 3.988 4.914.676 1.433 1.281 3.375 1.082 5.621-.387.191-.781.684-1.363.488-1.27-4-3.02-8-7.508-9.168l-1.477 1.903-.574.242c-1.754.488-4.973-.879-7.312-1.66-2.442-.875-4.973-2.727-6.731-4.192-6.04-4.679-8.973-11.992-8.973-19.695.59-15.512 15.899-24.774 23.21-35.598 2.024-2.976.321-8.34-3.507-10.531-7.344-5.734-37.09-33.762-44.555-39.988l.012-16.246 5.191.007"/><path d="m160.68 192.9l.437.625 34.477-7.844-11.703 16.09.453.527 47.04-7.254c.195 14.528-4.684 27.21-14.922 37.16.195 7.121-.387 14.41-.484 22.22l-58.52.023-.488-21.262c-14.336-12.191-17.16-30.722-16.188-49.64l33.547-10.05-13.652 19.406"/><path d="m231.38 105.69v79.51h-.016l-29.722 5.164 12.675-18.531-.488-.489-34.621 8.684 12.875-18.727-.488-.484-50.774 13.445-.035-55.969c13.332.786 16.07 11.29 16.07 12.629v23.11h-.039c0 1.027.925 1.863 1.957 1.863 1.031 0 1.871-.832 1.871-1.863h-.059v-67.6c0-4.195 3.402-7.597 7.606-7.597 4.199 0 7.601 3.402 7.601 7.597v67.785h.004c0 .915.742 1.657 1.66 1.657.914 0 1.656-.742 1.656-1.657l.004.18v-79.66c0-4.199 3.407-7.605 7.606-7.605 4.199 0 7.601 3.406 7.601 7.605v79.48h.008c0 .915.738 1.657 1.653 1.657.917 0 1.66-.742 1.66-1.657h.004v-68.03c0-4.195 3.406-7.601 7.605-7.601 4.199 0 7.602 3.406 7.602 7.601v68.03h.003c0 .915.743 1.657 1.661 1.657.914 0 1.656-.742 1.656-1.657v-48.52c0-4.199 3.406-7.602 7.605-7.602 4.204 0 7.606 3.403 7.606 7.602"/></g></svg>
